!!!OTL: Ritter und Magd.
!!!OTL-incipit: Es spielte ein Ritter mit einer Madam
!!!ARE: Europa, Mitteleuropa, Deutschland (BRD), Hessen, Nassau
!!!YOR: 3, S. 11
!!    1890 aufgezeichnet (um 1880/90)
!!!SCT: Q0055C
!!!TXL: @@DE
!!!YEM: Copyright 1995, estate of Helmut Schaffrath.
**kern	**text
*ICvox	*
*M6/8	*
*k[b-]	*
*F:	*
{8c	1._Es
=1	=1
8f	ſpiel-
8f	-te
8a	ein
8cc	Rit-
8cc	-ter
8dd	mit
=2	=2
8cc	ei-
8cc	-ner
8a	Ma-
4f}	-dam
{8cc	wohl
=3	=3
4ff	bis
8ff	ʒum
8eeL	hel-
8ddJ	.
8cc	-len
=4	=4
4.dd	Mor-
4cc}	-gen,
{8cc	und
=5	=5
8dd	als
8dd	ſie
8ee	das
8ff	Spielchen
8ee	.
8dd	vollen-
=6	=6
4cc	.
8b-	-det
8a	hatten,
8a}	.
{8dd	da
=7	=7
4cc	fing
8g	ſie
4b-	an
8b-	ʒu
=8	=8
(4b-	wei-
8cc)	.
4a}	-nen.
==	==
!!!AGN: Ballade, Betrug, Schwangerschaft, Tod, Selbstmord, Herr und Magd
!!!ONB: ESAC (Essen Associative Code) Database: BALLADE
!!!AMT: compound duple
!!!AIN: vox
!!!EED: Helmut Schaffrath
!!!EEV: 1.0
!!@@COMMENT:"Naſſau, um 1880/90. Mel.: E. H. Wolfram, Druckmpt Nr. 59.
!!Text: Derſ. , Nachl. Nr. 424."
!!@@END:
!!!source: Deutsche Volkslieder mit ihren Melodien. Herausgegeben vom Deutschen Volksliedarchiv. Dritter Band Balladen. Berlin 1954.
!!!page: 11
!!!ENC: Anna Maria Matuszewska
!!!EEV: 2025/02/18
*-	*-
